X: 1464
T: Anderson's
R: reel
M: 4/4
K: Dmajor
|ABdf efdB|AF F2 EDEF|ABdf efdf|afeg fddB|
ABdf efdB|AF F2 EDEF|ABdf efdf|afef defg|
a2 fa bafb|a2 fd edBd|a2 fa bafb|afef defg|
a2 fa bafb|a2 fd edBd|A2 FA ABdf|afef d4|

